X: 20
T:O sont donc ces amants 
R:Bourre  2 temps
C:Trad.
O:France
A:Centre
S:80 airs  danser du centre France - La Chavanne - 1991
S:20
Z:Transcrit et/ou corrig par Michel BELLON - 2005-05-15
Z:Pour toute observation mailto:galouvielle@free.fr
M:2/4
L:1/8
K:Bb
GG dd/2d/2 | dc dc/2B/2 | A>B cd | c/2d/2c/2B/2 A2 | GG dd/2d/2 | dc dc/2B/2 | A>B cd | B2A2 ::
GB AB/2A/2 | GB AB | c>B AG | B2A2 | GB AB/2A/2 | GB AB | c>B AG | BAG2 :| 
%%footer $D   Galouvielle-MBe 2005 \nBourre  2 temps France
